svg/icon/rhoc.svg

<svg xmlns="http://www.w3.org/2000/svg" xmlns:xlink="http://www.w3.org/1999/xlink" width="32" height="32" viewBox="0 0 32 32">
  <defs>
    <linearGradient id="rhoc-c" x1="50%" x2="50%" y1="0%" y2="100%">
      <stop offset="0%" stop-color="#FFF" stop-opacity=".5"/>
      <stop offset="100%" stop-opacity=".5"/>
    </linearGradient>
    <circle id="rhoc-b" cx="16" cy="15" r="15"/>
    <filter id="rhoc-a" width="111.7%" height="111.7%" x="-5.8%" y="-4.2%" filterUnits="objectBoundingBox">
      <feOffset dy=".5" in="SourceAlpha" result="shadowOffsetOuter1"/>
      <feGaussianBlur in="shadowOffsetOuter1" result="shadowBlurOuter1" stdDeviation=".5"/>
      <feComposite in="shadowBlurOuter1" in2="SourceAlpha" operator="out" result="shadowBlurOuter1"/>
      <feColorMatrix in="shadowBlurOuter1" values="0 0 0 0 0   0 0 0 0 0   0 0 0 0 0  0 0 0 0.199473505 0"/>
    </filter>
    <path id="rhoc-e" d="M11.8163536,8.24048566 C13.4811536,6.99246967 15.4934736,6.20870155 17.5686736,6.03918631 C17.7806736,5.99712734 18.0113936,6.13146017 18.0035536,6.36494343 C18.0241936,6.92418381 18.0104336,7.48582299 18.0104336,8.04554313 C18.0241936,8.21905637 17.9320336,8.44470355 17.7317136,8.44966107 C15.8864336,8.65371904 14.1323536,9.40822179 12.6078736,10.4501008 C12.4638736,10.5311803 12.4958736,10.7176471 12.5070736,10.8543787 C12.6142736,11.8364477 12.5416336,12.8253932 12.5710736,13.8103407 C17.5451536,13.8240939 22.5211536,13.8084217 27.4971536,13.8181768 C27.7336336,13.7975471 27.9840336,13.9328395 27.9653136,14.1987865 C27.9897936,15.8725096 27.9701136,17.5471923 27.9750736,19.221875 C27.9789136,20.1322997 27.7846736,21.0740689 27.2339536,21.8176971 C26.3641936,22.9870324 24.8349136,23.6886016 23.3801936,23.4295311 C22.3507536,23.2755281 21.4601936,22.6368075 20.8361936,21.8264927 C19.1488336,23.0972173 17.1003536,23.8779469 14.9918736,24.0407455 C14.7773136,24.0436241 14.6158736,23.8326896 14.6493136,23.6267125 C14.6561936,23.0409254 14.6365136,22.4532193 14.6581136,21.8675921 C14.7081936,21.5567075 15.0910736,21.6174772 15.3177936,21.5655031 C17.0621136,21.293799 18.7301136,20.5628045 20.1541136,19.5268425 C20.0745936,18.4389064 20.0605136,17.3479319 20.0765136,16.2569574 C15.0851536,16.2249734 10.0913936,16.2547185 5.09939362,16.2409654 C4.87843362,16.2655931 4.66739362,16.1016751 4.68803362,15.8681918 C4.68440695,14.1045936 4.68504695,12.3413152 4.68995362,10.5783567 C4.70083362,9.65625777 4.99139362,8.7244037 5.60195362,8.02075552 C6.40691362,7.10537321 7.62099362,6.51974603 8.85299362,6.59234973 C10.0337936,6.63936622 11.1155536,7.3103907 11.8163536,8.24048566 Z M6.70035362,10.881885 C6.69843362,11.9154482 6.69651362,12.9494912 6.70227362,13.9843337 C7.93587362,13.9825746 9.16787362,14.0012853 10.4009936,13.9739389 C10.4029136,12.9664427 10.4157136,11.9589464 10.3950736,10.9514502 C10.3763536,9.98521329 9.50275362,9.13156012 8.53299362,9.15027076 C7.58579362,9.11204987 6.72387362,9.94011584 6.70035362,10.881885 Z M22.4086736,16.1714002 C22.3998736,17.1544287 22.4067536,18.1372973 22.4030736,19.1193662 C22.3968791,19.511921 22.516218,19.896203 22.7437136,20.2162578 C23.2168336,20.8931993 24.1611536,21.1885716 24.9336336,20.8903207 C25.6462736,20.6264527 26.1165136,19.879786 26.1086736,19.1292813 C26.1086736,18.1441738 26.1144336,17.1592263 26.1046736,16.1742788 C24.8726736,16.1645236 23.6406736,16.1694812 22.4086736,16.1714002 Z"/>
    <filter id="rhoc-d" width="115%" height="119.4%" x="-7.5%" y="-6.9%" filterUnits="objectBoundingBox">
      <feOffset dy=".5" in="SourceAlpha" result="shadowOffsetOuter1"/>
      <feGaussianBlur in="shadowOffsetOuter1" result="shadowBlurOuter1" stdDeviation=".5"/>
      <feColorMatrix in="shadowBlurOuter1" values="0 0 0 0 0   0 0 0 0 0   0 0 0 0 0  0 0 0 0.204257246 0"/>
    </filter>
  </defs>
  <g fill="none" fill-rule="evenodd">
    <g fill-rule="nonzero">
      <use fill="#000" filter="url(#rhoc-a)" xlink:href="#rhoc-b"/>
      <use fill="#CC1E46" fill-rule="evenodd" xlink:href="#rhoc-b"/>
      <use fill="url(#rhoc-c)" fill-rule="evenodd" style="mix-blend-mode:soft-light" xlink:href="#rhoc-b"/>
      <circle cx="16" cy="15" r="14.5" stroke="#000" stroke-opacity=".097"/>
    </g>
    <g fill-rule="nonzero">
      <use fill="#000" filter="url(#rhoc-d)" xlink:href="#rhoc-e"/>
      <use fill="#FFF" fill-rule="evenodd" xlink:href="#rhoc-e"/>
    </g>
  </g>
</svg>

<svg xmlns="http://www.w3.org/2000/svg" xmlns:xlink="http://www.w3.org/1999/xlink" width="32" height="32"><defs><linearGradient id="c" x1="50%" x2="50%" y1="0%" y2="100%"><stop offset="0%" stop-color="#FFF" stop-opacity=".5"/><stop offset="100%" stop-opacity=".5"/></linearGradient><circle id="b" cx="16" cy="15" r="15"/><filter id="a" width="111.7%" height="111.7%" x="-5.8%" y="-4.2%" filterUnits="objectBoundingBox"><feOffset dy=".5" in="SourceAlpha" result="shadowOffsetOuter1"/><feGaussianBlur in="shadowOffsetOuter1" result="shadowBlurOuter1" stdDeviation=".5"/><feComposite in="shadowBlurOuter1" in2="SourceAlpha" operator="out" result="shadowBlurOuter1"/><feColorMatrix in="shadowBlurOuter1" values="0 0 0 0 0 0 0 0 0 0 0 0 0 0 0 0 0 0 0.199473505 0"/></filter><path id="e" d="M11.816 8.24a11.174 11.174 0 0 1 5.753-2.2c.212-.043.442.091.435.325.02.56.006 1.12.006 1.68.014.174-.078.4-.278.405-1.846.204-3.6.958-5.124 2-.144.081-.112.268-.1.404.106.982.034 1.971.063 2.956 4.974.014 9.95-.002 14.926.008.237-.02.487.115.468.38.025 1.675.005 3.35.01 5.024.004.91-.19 1.852-.741 2.596-.87 1.169-2.4 1.87-3.854 1.612-1.03-.154-1.92-.793-2.544-1.604a11.207 11.207 0 0 1-5.844 2.215c-.215.003-.376-.208-.343-.414.007-.586-.012-1.174.01-1.76.05-.31.432-.25.659-.301 1.744-.272 3.412-1.003 4.836-2.04a37.333 37.333 0 0 1-.077-3.269c-4.992-.032-9.986-.002-14.978-.016-.22.025-.432-.14-.411-.373-.004-1.763-.003-3.527.002-5.29.01-.922.301-1.854.912-2.557.805-.916 2.019-1.501 3.251-1.429 1.18.047 2.263.718 2.963 1.648zM6.7 10.882c-.002 1.033-.003 2.067.002 3.102 1.234-.001 2.466.017 3.699-.01.002-1.008.015-2.015-.006-3.023-.019-.966-.892-1.82-1.862-1.8-.947-.039-1.81.79-1.833 1.73zm15.709 5.29c-.01.982-.002 1.965-.006 2.947-.006.393.113.777.34 1.097.474.677 1.418.973 2.19.674.713-.264 1.184-1.01 1.176-1.76 0-.986.005-1.97-.004-2.956-1.232-.01-2.464-.005-3.696-.003z"/><filter id="d" width="115%" height="119.4%" x="-7.5%" y="-6.9%" filterUnits="objectBoundingBox"><feOffset dy=".5" in="SourceAlpha" result="shadowOffsetOuter1"/><feGaussianBlur in="shadowOffsetOuter1" result="shadowBlurOuter1" stdDeviation=".5"/><feColorMatrix in="shadowBlurOuter1" values="0 0 0 0 0 0 0 0 0 0 0 0 0 0 0 0 0 0 0.204257246 0"/></filter></defs><g fill="none"><use fill="#000" filter="url(#a)" xlink:href="#b"/><use fill="#CC1E46" fill-rule="evenodd" xlink:href="#b"/><use fill="url(#c)" fill-rule="evenodd" style="mix-blend-mode:soft-light" xlink:href="#b"/><circle cx="16" cy="15" r="14.5" stroke="#000" stroke-opacity=".097"/><use fill="#000" filter="url(#d)" xlink:href="#e"/><use fill="#FFF" fill-rule="evenodd" xlink:href="#e"/></g></svg>
